www/assets/icons/content_paste_search.svg

<svg xmlns="http://www.w3.org/2000/svg" width="24" height="24" viewBox="0 0 24 24" fill='currentColor'><path d="M4 5h2v3h10V5h2v5h2V5c0-1.1-.9-2-2-2h-4.18C13.4 1.84 12.3 1 11 1s-2.4.84-2.82 2H4c-1.1 0-2 .9-2 2v14c0 1.1.9 2 2 2h5v-2H4zm7-2c.55 0 1 .45 1 1s-.45 1-1 1-1-.45-1-1 .45-1 1-1"/><path d="M19.3 18.9c.4-.7.7-1.5.7-2.4 0-2.5-2-4.5-4.5-4.5S11 14 11 16.5s2 4.5 4.5 4.5c.9 0 1.7-.3 2.4-.7l2.7 2.7 1.4-1.4zm-3.8.1c-1.4 0-2.5-1.1-2.5-2.5s1.1-2.5 2.5-2.5 2.5 1.1 2.5 2.5-1.1 2.5-2.5 2.5"/></svg>

<svg width="24" height="24" viewBox="0 0 24 24" xmlns="http://www.w3.org/2000/svg" fill='currentColor'><path d="M4 5H6V8H16V5H18V10H20V5C20 3.9 19.1 3 18 3H13.82C13.4 1.84 12.3 1 11 1C9.7 1 8.6 1.84 8.18 3H4C2.9 3 2 3.9 2 5V19C2 20.1 2.9 21 4 21H9V19H4V5ZM11 3C11.55 3 12 3.45 12 4C12 4.55 11.55 5 11 5C10.45 5 10 4.55 10 4C10 3.45 10.45 3 11 3Z"/><path d="M19.3 18.9C19.7 18.2 20 17.4 20 16.5C20 14 18 12 15.5 12C13 12 11 14 11 16.5C11 19 13 21 15.5 21C16.4 21 17.2 20.7 17.9 20.3L20.6 23L22 21.6L19.3 18.9ZM15.5 19C14.1 19 13 17.9 13 16.5C13 15.1 14.1 14 15.5 14C16.9 14 18 15.1 18 16.5C18 17.9 16.9 19 15.5 19Z"/></svg>
